icon/pk/cloud-storage.svg

<svg viewBox="0 0 48 48" fill="none" xmlns="http://www.w3.org/2000/svg" height="1em" width="1em">
  <path d="M44 29H4V42H44V29Z" fill="#2F88FF" stroke="black" stroke-width="4" stroke-linejoin="round"/>
  <path d="M35.5 38C36.8807 38 38 36.8807 38 35.5C38 34.1193 36.8807 33 35.5 33C34.1193 33 33 34.1193 33 35.5C33 36.8807 34.1193 38 35.5 38Z" fill="white"/>
  <path d="M4 28.9998L9.03837 4.99902H39.0205L44 28.9998" stroke="black" stroke-width="4" stroke-linejoin="round"/>
  <path d="M19.006 16.0259C16.8635 16.0259 15 17.5124 15 19.5128C15 21.9998 17.0947 22.9998 19.6973 22.9998C20.1437 22.9998 20.5567 22.9998 20.9768 22.9998" stroke="black" stroke-width="4" stroke-linecap="round" stroke-linejoin="round"/>
  <path d="M29.007 16.0259C31.1039 16.0259 33 16.9994 33 19.5128C33 21.9998 30.8902 22.9998 28.2877 22.9998C27.8412 22.9998 27.4013 22.9998 26.9871 22.9998" stroke="black" stroke-width="4" stroke-linecap="round" stroke-linejoin="round"/>
  <path d="M29.0069 16.0261C29.0069 13.0423 27.0231 11 23.9998 11C20.9766 11 19.0059 12.9927 19.0059 16.0261" stroke="black" stroke-width="4" stroke-linecap="round" stroke-linejoin="round"/>
  <path d="M20 23H28" stroke="black" stroke-width="4"/>
</svg>

<svg width="48" height="48" fill="none" xmlns="http://www.w3.org/2000/svg"><path d="M44 29H4v13h40V29Z" fill="#2F88FF" stroke="#000" stroke-width="4" stroke-linejoin="round"/><path d="M35.5 38a2.5 2.5 0 1 0 0-5 2.5 2.5 0 0 0 0 5Z" fill="#fff"/><path d="M4 29 9.038 4.999H39.02l4.98 24" stroke="#000" stroke-width="4" stroke-linejoin="round"/><path d="M19.006 16.026c-2.143 0-4.006 1.486-4.006 3.487C15 22 17.095 23 19.697 23h1.28M29.007 16.026c2.097 0 3.993.973 3.993 3.487C33 22 30.89 23 28.288 23h-1.3M29.007 16.026C29.007 13.042 27.023 11 24 11c-3.023 0-4.994 1.993-4.994 5.026" stroke="#000" stroke-width="4" stroke-linecap="round" stroke-linejoin="round"/><path d="M20 23h8" stroke="#000" stroke-width="4"/></svg>
